assets/eye-icon.svg

<svg width="100%" height="100%" viewBox="0 0 64 64" version="1.1" xmlns="http://www.w3.org/2000/svg"
    style="fill-rule:evenodd;clip-rule:evenodd;stroke-linejoin:round;stroke-miterlimit:2;">
    <path
        d="M32.513,13.926c10.574,0.15 19.249,9.657 23.594,17.837c0,0 -1.529,3.129 -2.963,5.132c-0.694,0.969 -1.424,1.913 -2.191,2.826c-0.547,0.65 -1.112,1.283 -1.698,1.898c-5.237,5.5 -12.758,9.603 -20.7,8.01c-8.823,-1.77 -16.02,-9.33 -20.346,-17.461c0,0 1.536,-3.132 2.978,-5.132c0.646,-0.897 1.324,-1.77 2.034,-2.617c0.544,-0.649 1.108,-1.282 1.691,-1.897c4.627,-4.876 10.564,-8.63 17.601,-8.596Zm-0.037,4c-5.89,-0.022 -10.788,3.267 -14.663,7.35c-0.527,0.555 -1.035,1.127 -1.527,1.713c-0.647,0.772 -1.265,1.569 -1.854,2.386c-0.589,0.816 -1.193,1.846 -1.672,2.721c3.814,6.409 9.539,12.198 16.582,13.611c6.563,1.317 12.688,-2.301 17.016,-6.846c0.529,-0.555 1.04,-1.128 1.534,-1.715c0.7,-0.833 1.366,-1.694 1.999,-2.579c0.586,-0.819 1.189,-1.851 1.667,-2.727c-3.958,-6.625 -10.73,-13.784 -19.082,-13.914Z" />
    <path
        d="M32.158,23.948c4.425,0 8.018,3.593 8.018,8.017c0,4.425 -3.593,8.017 -8.018,8.017c-4.424,0 -8.017,-3.592 -8.017,-8.017c0,-4.424 3.593,-8.017 8.017,-8.017Zm0,4.009c2.213,0 4.009,1.796 4.009,4.008c0,2.213 -1.796,4.009 -4.009,4.009c-2.212,0 -4.008,-1.796 -4.008,-4.009c0,-2.212 1.796,-4.008 4.008,-4.008Z" />
</svg>

<svg width="64" height="64" viewBox="0 0 64 64" fill="none" xmlns="http://www.w3.org/2000/svg">
<path fill-rule="evenodd" clip-rule="evenodd" d="M32.513 13.926C43.087 14.076 51.762 23.583 56.107 31.763C56.107 31.763 54.578 34.892 53.144 36.895C52.45 37.864 51.72 38.808 50.953 39.721C50.406 40.371 49.841 41.004 49.255 41.619C44.018 47.119 36.497 51.222 28.555 49.629C19.732 47.859 12.535 40.299 8.20898 32.168C8.20898 32.168 9.74498 29.036 11.187 27.036C11.833 26.139 12.511 25.266 13.221 24.419C13.765 23.77 14.329 23.137 14.912 22.522C19.539 17.646 25.476 13.892 32.513 13.926V13.926ZM32.476 17.926C26.586 17.904 21.688 21.193 17.813 25.276C17.286 25.831 16.778 26.403 16.286 26.989C15.639 27.761 15.021 28.558 14.432 29.375C13.843 30.191 13.239 31.221 12.76 32.096C16.574 38.505 22.299 44.294 29.342 45.707C35.905 47.024 42.03 43.406 46.358 38.861C46.887 38.306 47.398 37.733 47.892 37.146C48.592 36.313 49.258 35.452 49.891 34.567C50.477 33.748 51.08 32.716 51.558 31.84C47.6 25.215 40.828 18.056 32.476 17.926Z" fill="black"/>
<path fill-rule="evenodd" clip-rule="evenodd" d="M32.158 23.948C36.583 23.948 40.176 27.541 40.176 31.965C40.176 36.39 36.583 39.982 32.158 39.982C27.734 39.982 24.141 36.39 24.141 31.965C24.141 27.541 27.734 23.948 32.158 23.948ZM32.158 27.957C34.371 27.957 36.167 29.753 36.167 31.965C36.167 34.178 34.371 35.974 32.158 35.974C29.946 35.974 28.15 34.178 28.15 31.965C28.15 29.753 29.946 27.957 32.158 27.957V27.957Z" fill="black"/>
</svg>
